public/logo.svg

<svg width="72" height="72" viewBox="0 0 72 72" fill="none" xmlns="http://www.w3.org/2000/svg">
<g id="Group 9">
<g id="Rectangle Copy 3">
<path id="Mask" d="M0 0H52C63.0457 0 72 8.95431 72 20V52C72 63.0457 63.0457 72 52 72H0V0Z" fill="#7C5DFA"/>
<mask id="mask0_1_395" style="mask-type:luminance" maskUnits="userSpaceOnUse" x="0" y="0" width="72" height="72">
<path id="Mask_2" d="M0 0H52C63.0457 0 72 8.95431 72 20V52C72 63.0457 63.0457 72 52 72H0V0Z" fill="white"/>
</mask>
<g mask="url(#mask0_1_395)">
<path id="Rectangle Copy 3_2" d="M72 36.3496H20C8.95431 36.3496 0 45.3039 0 56.3496V88.3496C0 99.3953 8.95431 108.35 20 108.35H72V36.3496Z" fill="#9277FF"/>
</g>
</g>
<path id="Combined Shape" fill-rule="evenodd" clip-rule="evenodd" d="M29.486 23L36 35.8992L42.514 23C46.9652 25.3089 50 29.9102 50 35.2097C50 42.8258 43.732 48.9999 36 48.9999C28.268 48.9999 22 42.8258 22 35.2097C22 29.9102 25.0348 25.3089 29.486 23Z" fill="white"/>
</g>
</svg>

<svg width="72" height="72" fill="none" xmlns="http://www.w3.org/2000/svg"><path d="M0 0h52c11.046 0 20 8.954 20 20v32c0 11.046-8.954 20-20 20H0V0Z" fill="#7C5DFA"/><mask id="a" style="mask-type:luminance" maskUnits="userSpaceOnUse" x="0" y="0" width="72" height="72"><path d="M0 0h52c11.046 0 20 8.954 20 20v32c0 11.046-8.954 20-20 20H0V0Z" fill="#fff"/></mask><g mask="url(#a)"><path d="M72 36.35H20c-11.046 0-20 8.954-20 20v32c0 11.045 8.954 20 20 20h52v-72Z" fill="#9277FF"/></g><path fill-rule="evenodd" clip-rule="evenodd" d="M29.486 23 36 35.9 42.514 23C46.965 25.309 50 29.91 50 35.21 50 42.826 43.732 49 36 49s-14-6.174-14-13.79c0-5.3 3.035-9.901 7.486-12.21Z" fill="#fff"/></svg>
